assets/svgs/illustration-teaching.svg

<svg width="200" height="160" viewBox="0 0 200 160" fill="none" xmlns="http://www.w3.org/2000/svg" class="svg__illustration-teaching">
<path d="M98.6874 4.74365L99.414 4.55781C99.3291 4.22585 99.03 3.99364 98.6874 3.99365C98.3447 3.99366 98.0457 4.22589 97.9608 4.55785L98.6874 4.74365ZM97.9608 4.92949L132.152 138.616L133.606 138.244L99.414 4.55781L97.9608 4.92949ZM132.158 138.635L136.786 154.948L138.229 154.539L133.601 138.225L132.158 138.635ZM97.9608 4.55785L63.7763 138.244L65.2295 138.616L99.414 4.92945L97.9608 4.55785ZM63.7814 138.225L59.1535 154.539L60.5965 154.948L65.2244 138.635L63.7814 138.225ZM132.879 137.68H64.5029V139.18H132.879V137.68Z" fill="#0B6AB7" class="svg__fill--primary-blue-03"/>
<rect x="91.8477" y="16.0012" width="13.6887" height="8.52157" fill="white" class="svg__fill--white"/>
<rect x="15.6284" y="24.1885" width="168.77" height="101.715" rx="1.25" fill="white" stroke="#0B6AB7" stroke-width="1.5" class="svg__fill--white svg__stroke--primary-blue-03"/>
<rect x="15.6284" y="16.5989" width="168.77" height="7.17405" rx="1.25" stroke="#0B6AB7" stroke-width="1.5" class="svg__stroke--primary-blue-03"/>
<rect x="18.8344" y="19.5251" width="162.503" height="1.35532" rx="0.67766" stroke="#0AA5FF" stroke-width="1.35532" class="svg__stroke--default-cyan-03"/>
<path d="M118.251 50.2215H120.732C121.642 50.2215 122.379 50.9586 122.379 51.8678V99.3356C122.379 100.245 121.642 100.982 120.732 100.982H116.912H82.5513C82.5513 100.982 77.6423 100.982 77.6426 95.5711M118.251 50.2215V89.9373C118.251 89.9373 90.4163 89.9373 82.5513 89.9373C82.5513 89.9373 77.6428 90.1604 77.6426 95.5711M118.251 50.2215V46.0938H85.8739C81.3279 46.0938 77.6426 49.779 77.6426 54.3251V95.5711" stroke="#0B6AB7" stroke-width="1.25" class="svg__stroke--primary-blue-03"/>
<path d="M98.7616 58.0586L106.301 61.1814L109.424 68.7206L106.301 76.2598L98.7616 79.3826L91.2224 76.2598L88.0996 68.7206L91.2224 61.1814L98.7616 58.0586Z" stroke="#FFD600" stroke-width="1.25" class="svg__stroke--secondary-yellow-03"/>
<path d="M84.665 96.2986L106.396 96.2986" stroke="#00E0E0" stroke-width="1.25" class="svg__stroke--help-green-03"/>
<path d="M108.205 96.2986L112.156 96.2986" stroke="#00E0E0" stroke-width="1.25" class="svg__stroke--help-green-03"/>
<path d="M113.8 96.2986L115.117 96.2986" stroke="#00E0E0" stroke-width="1.25" class="svg__stroke--help-green-03"/>
<path d="M94.3551 101.378L98.6348 104.292C98.6591 104.309 98.6921 104.291 98.6921 104.262V95.6572H90.0181V104.262C90.0181 104.291 90.051 104.309 90.0754 104.292L94.3551 101.378Z" fill="#0AA5FF" class="svg__fill--default-cyan-03"/>
</svg>

<svg width="200" height="160" viewBox="0 0 200 160" fill="none" xmlns="http://www.w3.org/2000/svg" class="svg__illustration-teaching">
  <path d="m98.687 4.744.727-.186a.75.75 0 0 0-1.453 0l.726.186Zm-.726.185 34.191 133.687 1.454-.372L99.414 4.558l-1.453.371Zm34.197 133.706 4.628 16.313 1.443-.409-4.628-16.314-1.443.41ZM97.961 4.558 63.776 138.244l1.453.372L99.415 4.929l-1.453-.371ZM63.78 138.225l-4.627 16.314 1.442.409 4.628-16.313-1.443-.41Zm69.098-.545H64.503v1.5h68.376v-1.5Z" fill="#0B6AB7" class="svg__fill--primary-blue-03"/>
  <path fill="#fff" d="M91.848 16.001h13.689v8.522H91.848z" class="svg__fill--white"/>
  <rect x="15.628" y="24.189" width="168.77" height="101.715" rx="1.25" fill="#fff" stroke="#0B6AB7" stroke-width="1.5" class="svg__fill--white svg__stroke--primary-blue-03"/>
  <rect x="15.628" y="16.599" width="168.77" height="7.174" rx="1.25" stroke="#0B6AB7" stroke-width="1.5" class="svg__stroke--primary-blue-03"/>
  <rect x="18.834" y="19.525" width="162.503" height="1.355" rx=".678" stroke="#0AA5FF" stroke-width="1.355" class="svg__stroke--default-cyan-03"/>
  <path d="M118.251 50.221h2.481c.909 0 1.646.738 1.646 1.647v47.468c0 .909-.737 1.646-1.646 1.646H82.551s-4.909 0-4.909-5.41m40.609-45.35v39.715h-35.7s-4.908.223-4.909 5.634m40.609-45.35v-4.127H85.874a8.231 8.231 0 0 0-8.232 8.231v41.246" stroke="#0B6AB7" stroke-width="1.25" class="svg__stroke--primary-blue-03"/>
  <path d="m98.761 58.059 7.54 3.123 3.122 7.539-3.122 7.539-7.54 3.123-7.539-3.123-3.123-7.54 3.123-7.538 7.54-3.123Z" stroke="#FFD600" stroke-width="1.25" class="svg__stroke--secondary-yellow-03"/>
  <path d="M84.665 96.299h21.73M108.204 96.299h3.951M113.8 96.299h1.317" stroke="#00E0E0" stroke-width="1.25" class="svg__stroke--help-green-03"/>
  <path d="m94.355 101.378 4.28 2.914a.037.037 0 0 0 .057-.03v-8.605h-8.674v8.605c0 .029.032.047.057.03l4.28-2.914Z" fill="#0AA5FF" class="svg__fill--default-cyan-03"/>
</svg>
